!!!COM: Jules Massenet
!!!CNT: Francais
!!!TXO: Francais
!!!OTL: "Amoureuse"
!!!LYR: Morel-Retz ("Stop")
!!!OPR: 
!!!OPS: Op. 
!!!ONM: No.
!!!ENC: Emily Thomas
!!!YOR: CD Sheet Music French Art Songs, The Ultimate Collection
!!!YOR: CD Sheet Music, LLC 2003
!!!ODT: 1898/
!!NB: Vocal melody and text encoded.
**kern	**silbe
=1	=1
*clefG2	*
*k[b-e-a-]	*
*M4/4	*
*MM[Bien mode/re/. sans lenteur cependant.]	*
1r	.
=2	=2
8r	.
{8ee-	{Tu
8dd	vou-
8cc	-drais
8b-	li-
8e-	-re
8f	dans
8g	mon
=3	=3
4d	a^-
4c	-me
8r	.
8c	Et
8.g	tu
16f	pre/-
=4	=4
[2a-	-tends
8a-]	|
8c	mon
8.g	bien
16f	ai-
=5	=5
2.b-}	-me/,}
{8.b-	{Que
16b-	par-
=6	=6
4.b-	-fois
8g	le
4ee-	Coeur
8ee-	d'u-
8bn	-ne
=7	=7
4bn	fem-
4cc}	-me}
4r	.
{8cc	{Est
8dd	un
=8	=8
4ff	livre
8ee-	a\
8cc	ja-
4.dd	-mais
8an	fer-
=9	=9
2b-}	-me/;}
2r	.
=10	=10
8r	.
{8dd-	{In-
2dd-}	-grat!}
8.r	.
{16f	{Fi-
=11	=11
4f	-nis
12f	ce
12f	ba-
12g	-di-
4f	-na-
4en}	-ge.}
=12	=12
8r	.
{8f	{Le
8g	livre
8a	ou-
8cc	-vert
8f	a\
8.g	tes
16a-	de/-
=13	=13
4gg	-sirs,
4ff}	|}
8r	.
{8ff	{Te
8.ee-	montre,
16cc	e/-
=14	=14
[2dd	-crits
8dd]}	|}
{8cc	{sur
8.b-	cha-
16g	-que
=15	=15
4cc	pa-
4cc}	-ge,}
8r	.
{8c	{Et
8g	ma-
8f	-ten-
=16	=16
8a-}	-dresse}
{8c	{et
8.g	mes
16f	sou-
[2ff	-pirs.
=17	=17
2ff]	|
2ff#}	|}
=18	=18
{4.gg	{Lis
8ffn	sans
4ffn	crain-
4ee-}	-te,}
=19	=19
4r	.
{8cc	{et
8dd	s'il
4.b-	reste
8f	en-
=20	=20
4gg	-co-
4gg}	-re}
8r	.
{8gg	{Quel-
8ff	-que
8ee-	pas-
=21	=21
16ddn	sage
16cc	ob-
16b-	-scur
16a-	pour
16g}	toi,}
{16f	{En-
16g	-fant
16a-	cu-
16b-	-ri-
16cc}	-eux}
{16.dd	que
32ee-	j'a-
[4aa-	-do-
=22	=22
2aa-]	|
2cc-}	-re,}
=23	=23
4r	.
{4e-	{E-
4.f	-pe\-
8b-	-le-
=24	=24
[2b-	-moi!
4b-]}	|}
4r	.
=25	=25
1r	.
=26	=26
8r	.
{8ee-	{M'en
8dd	veux-
8cc	-tu
8b-	de
8e-	por-
8f	-ter
8g	en-
=27	=27
4d	-vi-
4c}	-e}
8r	.
{8c	{A
8.g	tes
16f	pen-
=28	=28
[2a-	-sers
8a-]	|
8d	de
8.g	cha-
16f	-que
=29	=29
2b-}	jour,}
4r	.
8r	.
{8b-	{A
=30	=30
8b-	tout
8b-	ce
8a-	qui
8g	rem-
4.ee-	-plit
8bn	ta
=31	=31
4bn	vi-
4cc}	-e}
8r	.
{8cc	{Et
8cc	te
8dd	de/-
=32	=32
4ff	-robe
8ee-	|
8cc	a\
4.dd	mon
8an	a0
=33	=33
2b-}	-mour?}
2r	.
=34	=34
4r	.
{8dd-	{Ah!
8r	.
4dd-	tiens!
8r	.
8f	Je
=35	=35
8f	vou-
8f	-drais
8f	e^-
8g	-tre
4f	bel-
8en}	-le}
8r	.
=36	=36
{8f	{A
[8f	faire
12f]	|
12g	ou-
12a-	-bli-
4.cc}	-er}
{16g	{l'u-
16a-	-ni-
=37	=37
4gg	-vers
4ff}	|}
8r	.
{8ff	{Et
8.ee-	t'en-
16cc	-chai^-
=38	=38
[2dd	-ner,
8dd]}	|}
{8cc	{mon
8.b-	doux
16g	re-
=39	=39
4cc	bel-
4cc}	-le,}
4r	.
{8d	{Dans
8g	ces
=40	=40
4f}	bras}
{8g	{qui
8a-	te
4..ff	sont
16ff	ou-
=41	=41
2ff	-verts!
2ff#}	|}
=42	=42
4r	.
{2gg	{E-
8ffn	-tre
8ee-	la
=43	=43
4.cc	vou-
8dd}	-pe}
{4.b-	{bien-
8f	-heu-
=44	=44
4gg	-reu-
4gg}	-se}
8r	.
{8gg	{Ou\
8ff	nul
8ee-	n'ait
=45	=45
16ddn	ja
16cc	-mais
16b-	bu
16a-	que
16g}	toi,}
{16f	{Et
16g	dire
16a-	a\
16b-	ta
16cc	le\vre
16.dd	a-
32ee-	-mour-
[4bb-	-reu-
=46	=46
2bb-]	|
2b-}	-se:}
=47	=47
4r	.
{4cc	{E-
4.e-	-pui-
8d	-se-
=48	=48
[1e-	-moi!
=49	=49
4e-]}	|}
4r	.
2r	.
==	==
*-	*-
